X: 64
T: Dunie Mains Strathspey
T: Strathspey, G
L: 1/16
M: C
K: G
|: e1f1| g1d3 d3c1 B1G3 G3B1| A1a3 a2g2 f1g1a1f1 d2e1f1| g1d3 d2c2 B1G3 G2B2| E2A2 G1F1E1D1 G6:| 
|: D2| G4 B2A2 F1A3 A2B2| G1G3 B2d2 g2d2 B2d2| c2A2 (3B2A2G2 F1A3 A2B2| E2A2 G1F1E1D1 G6:|
